X:1
T:Aura che qui d'intorno
T:Domenico Obizzi
T:Arietta
T:Source : Madrigali et arie a voce sola---Libro I ---Venetia---A.Vincenti---1627. Editor : André Vierendeels (28/02/16).
T:Notes : Original clefs : C1, F4 Editorial accidentals above the staff Figures above the BC are notated in original print Notation in the original print : "Alfabeto d'ariette per la Chitarra alla Spagnola", realised by the editor
T:Aura che qui d'intorno
T:©
T:©
T:©
T:©
C:Domenico Obizzi
Z:©
%%score 1 { ( 2 3 ) | 4 }
L:1/8
Q:1/4=90
M:4/4
K:C
V:1 treble nm="Soprano" snm="S"
V:2 treble nm="BC" snm="BC"
V:3 treble 
V:4 bass 
V:1
 d3 c/B/- AdcB | c3 B- A4 | A/E/^F/^G/ A/G/A/B/ A/G/A/B/ c/B/c/d/ | e2 d2 c2 cd | B4 B4 | %5
w: Au- ra _ _ che qui d'in-|tor- no, _|mor- * * * * * * * * * * * * * * *|* mo- ran- do t'ag-|gi- ri,|
w: Tu so- * * la mes- sa-|gie- ra, _|sa- * * * * * * * * * * * * * * *|* rai del co- re'a-|man- te,|
w: Se non _ _ lo mi vie-|tas- se, _|te- * * * * * * * * * * * * * * *|* nor d'em- pio de-|sti- no,|
w: Ma se _ _ gir non pos'|s'i- o, _|do- * * * * * * * * * * * * * * *|* ve mi chia- m'A-|mo- re,|
w: For- se _ _ se del suo|fo- co, _|spen- * * * * * * * * * * * * * * *|* ti gl'in- cen- dij|so- no,|
 z2 e2 ABcd | d4 c4 | E2 EG G2 ^F2 | G2 GD G2 E/F/G/E/ | F2 FA GFFE | E4 D4 | F2 FA A2 ^G2 | %12
w: deh pren- di miei so-|spi- ri|pren- di- li'e te- co'hor|ho- ra co- là li _ _ _|po- ta o- ve'il mio ben di-|mo- ra,|pren- di- li'e te- co'hor|
w: au- ra lie- v'e va-|gan- te,|men- tre li- be- ro'il|vo- lo spie- ghi dal _ _ _|cal- do'al _ ag- gia- cia- to|po- lo,|men- tre li- be- ro'il|
w: da me stes- so'il ca-|mi- no,|hor ho- ra pren- de-|re- i ne te- co _ _ _|i miei so- spir man- dar vor-|re- i,|hor ho- ra pren- de-|
w: scon- so- la- to'a- ma-|to- re,|deh voi por- ta- te'o|ven- ti, al- la mia _ _ _|bel- la'i miei so- spi- ri ar-|den- ti,|deh voi por- ta- te'o|
w: de miei so- spi- ri'al|suo- no,|da pie- ta dol- ce|vin- ta, ris- ve- glie- * * *|ra qual- che fa- vil- la es-|tin- ta,|da pie- ta dol- ce|
 A2 A2 A2 Ac | c2 B2 c2 cG | c2 A2 _B2 BA | _BAGF E4 | !fermata!D8 |] %17
w: ho- ra, pren- di- li'e|te- co'hor- ho- ra co-|là li por- ta, o-|ve'il mio ben di- mo-|ra.|
w: vo- lo, men- tre li-|be- ro'il vo- lo spie-|ghi dal cal- do al|ag- gia- cia- to po-|lo.|
w: re- i, hor ho- ra|pren- de- re- i ne|te- co i miei so-|spir man- dar vor- re-|i.|
w: ven- ti, deh voi por-|ta- te'o ven- ti, al-|la mia bel- la'i miei|so- spi- ri ar- den-|ti.|
w: vin- ta, da pie- ta|dol- ce vin- ta, ris-|ve- glia- ra qual- che|fa- vil- la es- tin-|ta.|
V:2
 A8 | c8 | E8 | A2 G4 A2 | G8 | G4 A4 | G4 E4 | G4 A4 | _B6 A2 | A4 G2 A2 | G2 E2 A4- | %11
 A2 F2 A2 ^G2 | E4 A4- | A2 B2 G4- | G2 F2 D4 | G4 A4 | ^F8 |] %17
V:3
 F8 | E8 | C8 | C2 D2 E2 D2 | B,8 | E4 C4 | B,4 C4 | E2 CB, D4 | D6 E2 | F4 E2 C2 | B,2 C2 F4- | %11
 F3 C B,4 | C4 C4 | F2 D2 E4- | E2 A,2 _B,4 | D4 ^C4 | A,8 |] %17
V:4
 D,8 | A,,8 | A,,8 | A,,2 B,,2 C,2 D,2 | E,4 E,4 | C,4 F,4 | G,4 C,4 | C,2 C,E, D,4 | %8
"^b" G,,4 G,,2 A,,2 | D,2 D,,2 E,,2 F,,2 | G,,2 A,,2 D,4 | D,2 D,F, E,4 | A,,4 F,2 F,E, | %13
 F,2 G,2 C,4 | C,2 D,2 G,,4 |"^#" G,,4 A,,4 | !fermata!D,8 |] %17

